images/KardLandLogoHorizontal.svg

<svg xmlns="http://www.w3.org/2000/svg" width="1242" height="252" viewBox="0 0 1242 252">
    <g fill-opacity=".068">
        <path d="m294.005 228.049-94.986 16.267c-4.698.805-8.507-2.829-8.507-8.115V69.484c0-5.287 3.809-10.225 8.507-11.029l94.986-16.267c4.698-.805 8.507 2.829 8.507 8.115V217.02c0 5.287-3.809 10.224-8.507 11.029M41.533 226.277l123.853 16.732c6.125.827 11.091-2.787 11.091-8.074V68.218c0-5.286-4.966-10.243-11.091-11.07L41.533 40.415c-6.125-.827-11.091 2.788-11.091 8.074v166.717c0 5.287 4.966 10.243 11.091 11.071M586.075 228.049l-94.987 16.267c-4.698.805-8.506-2.829-8.506-8.115V69.484c0-5.287 3.808-10.225 8.506-11.029l94.987-16.267c4.697-.805 8.506 2.829 8.506 8.115V217.02c0 5.287-3.809 10.224-8.506 11.029M333.603 226.277l123.852 16.732c6.125.827 11.091-2.787 11.091-8.074V68.218c0-5.286-4.966-10.243-11.091-11.07L333.603 40.415c-6.126-.827-11.092 2.788-11.092 8.074v166.717c0 5.287 4.966 10.243 11.092 11.071M1064.144 228.049l-94.987 16.267c-4.698.805-8.506-2.829-8.506-8.115V69.484c0-5.287 3.808-10.225 8.506-11.029l94.987-16.267c4.698-.805 8.506 2.829 8.506 8.115V217.02c0 5.287-3.808 10.224-8.506 11.029M772.075 228.049l-94.987 16.267c-4.698.805-8.506-2.829-8.506-8.115V69.484c0-5.287 3.808-10.225 8.506-11.029l94.987-16.267c4.697-.805 8.506 2.829 8.506 8.115V217.02c0 5.287-3.809 10.224-8.506 11.029M811.672 226.277l123.852 16.732c6.126.827 11.091-2.787 11.091-8.074V68.218c0-5.286-4.965-10.243-11.091-11.07L811.672 40.415c-6.125-.827-11.091 2.788-11.091 8.074v166.717c0 5.287 4.966 10.243 11.091 11.071M1103.741 226.277l123.853 16.732c6.125.827 11.091-2.787 11.091-8.074V68.218c0-5.286-4.966-10.243-11.091-11.07l-123.853-16.733c-6.125-.827-11.091 2.788-11.091 8.074v166.717c0 5.287 4.966 10.243 11.091 11.071"/>
    </g>
    <path fill="#e5e5e5" d="M292.939 36.485 186.049 7.624c-5.287-1.427-9.572 1.701-9.572 6.988v166.717c0 5.286 4.285 10.729 9.572 12.157l106.89 28.86c5.287 1.427 9.573-1.701 9.573-6.988V48.641c0-5.286-4.286-10.729-9.573-12.156M585.009 36.485 478.118 7.624c-5.286-1.427-9.572 1.701-9.572 6.988v166.717c0 5.286 4.286 10.729 9.572 12.157l106.891 28.86c5.286 1.427 9.572-1.701 9.572-6.988V48.641c0-5.286-4.286-10.729-9.572-12.156M771.009 37.577 664.118 8.717c-5.286-1.428-9.572 1.701-9.572 6.987v166.717c0 5.287 4.286 10.729 9.572 12.157l106.891 28.86c5.286 1.428 9.572-1.701 9.572-6.988V49.734c0-5.287-4.286-10.73-9.572-12.157M1063.078 37.577l-106.89-28.86c-5.287-1.428-9.573 1.701-9.573 6.987v166.717c0 5.287 4.286 10.729 9.573 12.157l106.89 28.86c5.287 1.428 9.572-1.701 9.572-6.988V49.734c0-5.287-4.285-10.73-9.572-12.157"/>
    <path fill="#fff" d="M40.014 36.485 146.905 7.624c5.286-1.427 9.572 1.701 9.572 6.988v166.717c0 5.286-4.286 10.729-9.572 12.157l-106.891 28.86c-5.286 1.427-9.572-1.701-9.572-6.988V48.641c0-5.286 4.286-10.729 9.572-12.156M332.084 36.485l106.89-28.861c5.287-1.427 9.572 1.701 9.572 6.988v166.717c0 5.286-4.285 10.729-9.572 12.157l-106.89 28.86c-5.287 1.427-9.573-1.701-9.573-6.988V48.641c0-5.286 4.286-10.729 9.573-12.156M1102.222 37.577l106.891-28.86c5.286-1.428 9.572 1.701 9.572 6.987v166.717c0 5.287-4.286 10.729-9.572 12.157l-106.891 28.86c-5.286 1.428-9.572-1.701-9.572-6.988V49.734c0-5.287 4.286-10.73 9.572-12.157M810.153 37.577l106.89-28.86c5.287-1.428 9.572 1.701 9.572 6.987v166.717c0 5.287-4.285 10.729-9.572 12.157l-106.89 28.86c-5.287 1.428-9.572-1.701-9.572-6.988V49.734c0-5.287 4.285-10.73 9.572-12.157"/>
    <path d="M491.816 166.137V52.375q0-3.053-.79-4.841-.789-1.787-2.82-3.316v-3.152l42.922 11.5q14.1 3.778 21.657 11.418 10.829 11.077 16.018 31.28 4.118 15.877 4.118 35.675 0 34.769-12.239 49.711-5.133 6.307-12.014 7.763t-17.54-1.4l-42.922-11.501v-3.152q2.031-.441 2.82-1.805.79-1.365.79-4.418m16.808-7.316 21.093 5.652q10.096 2.705 15.172-.761 10.886-7.425 10.886-37.368 0-21.669-5.866-34.764-3.271-7.279-7.896-11.227t-12.296-6.003l-21.093-5.652zM699.151 153.926l47.32 12.679q1.749.469 2.651-.679t1.466-4.572l1.805.484v35.048l-1.805-.484q-.564-3.725-1.466-5.357t-2.651-2.1l-67.737-18.151v-3.177q2.03-.448 2.82-1.825.789-1.377.789-4.455V46.661q0-3.078-.789-4.878-.79-1.8-2.82-3.337v-3.177l24.026 6.438v3.177q-2.03.35-2.82 1.776-.789 1.427-.789 4.505zM982.239 84.471v82.408q0 3.078.79 4.878t2.82 3.337v3.177l-22.617-6.06v-3.177q2.031-.449 2.82-1.826.79-1.377.79-4.455V47.979q0-2.979-.79-4.779-.789-1.8-2.82-3.337v-3.177l26.17 7.012v3.177q-2.425.442-2.425 3.917 0 2.383 1.579 5.686l42.47 89.12V65.177q0-2.979-.789-4.779-.79-1.8-2.82-3.337v-3.177l22.616 6.06v3.177q-2.03.449-2.82 1.826-.789 1.377-.789 4.355v114.775q0 3.078.789 4.878.79 1.8 2.82 3.337v3.177l-24.252-6.498v-3.177q2.369-.259 2.369-3.635 0-1.986-2.764-7.69zM253.456 147.849l-34.969-9.37L213.298 156q-1.071 3.652-1.071 5.918 0 4.334 3.778 7.021v3.151l-25.493-6.83v-3.152q2.256-.184 3.441-1.836 1.184-1.653 2.707-6.958l28.313-95.735q1.354-4.562 1.354-7.517 0-4.531-3.271-7.377v-3.152l27.298 7.315v3.151q-3.328.783-3.328 4.92 0 2.856 1.072 6.788l29.328 111.476q1.861 7.098 3.271 9.889t3.779 4.213v3.152l-28.313-7.586v-3.152q3.722-.086 3.722-5.11 0-2.068-1.128-6.409zm-4.851-19.719-12.464-51.208-12.634 44.483z"/>
    <g fill="#a60707">
        <path d="m85.195 121.854-11.563 19.547v36.049q0 3.054.818 4.46t2.792 1.763v3.152l-24.027 6.438v-3.152q2.031-1.529 2.82-3.316.79-1.788.79-4.841V68.093q0-2.955-.79-4.319-.789-1.364-2.82-1.805v-3.152l24.027-6.438v3.152q-2.03 1.43-2.82 3.267t-.79 4.792v47.08l31.698-53.702q2.199-3.742 2.199-5.613 0-2.856-3.271-3.063V45.14l31.472-8.433v3.152q-1.974 1.218-2.82 2.332t-4.907 8.012l-4.343 7.467-26.17 43.751 29.667 54.399q4.117 7.564 5.95 9.585 1.833 2.02 4.597 2.068v3.151l-30.062 8.055v-3.151q2.989-1.885 2.989-4.544 0-1.379-2.707-6.563zM368.112 129.34v44.618q0 2.955.817 4.361.818 1.406 2.792 1.764v3.152l-24.026 6.438v-3.152q2.03-1.529 2.82-3.317.789-1.787.789-4.742V64.601q0-3.053-.789-4.417-.79-1.365-2.82-1.806v-3.152l48.166-12.906q8.798-2.357 13.959-1.967t8.996 3.795q4.456 3.927 6.655 12.104 2.087 7.912 2.087 17.564 0 32.898-20.925 44.119l14.947 33.128q3.948 8.693 5.781 11.009t4.484 1.901v3.152l-27.862 7.465v-3.151q2.876-1.559 2.876-4.317 0-1.773-2.651-7.859l-15.566-35.424zm0-22.161 25.944-6.952q5.753-1.542 8.122-2.767 2.369-1.226 4.343-3.626 4.286-5.187 4.286-15.726t-4.286-13.429q-2.031-1.426-4.315-1.356-2.284.071-8.15 1.642l-25.944 6.952zM881.861 140.44l-34.968 9.37-5.189 20.453q-1.072 4.259-1.072 6.542 0 4.369 3.779 5.044v3.177l-25.493 6.831v-3.177q2.256-1.399 3.44-3.702t2.707-8.469l28.314-111.738q1.353-5.327 1.353-8.306 0-4.567-3.271-5.676v-3.177l27.298-7.315v3.178q-3.328 2.579-3.328 6.749 0 2.879 1.072 6.266l29.328 96.59q1.862 6.154 3.272 8.208t3.779 2.215v3.177l-28.314 7.586v-3.177q3.723-2.089 3.723-7.153 0-2.085-1.128-5.853zm-4.85-17.267L864.546 78.26l-12.634 51.638zM1119.92 179.161V64.486q0-3.078-.79-4.455-.789-1.377-2.82-1.826v-3.177l42.921-11.501q14.101-3.778 21.658-.144 10.829 5.339 16.018 22.913 4.118 13.789 4.118 33.746 0 35.048-12.239 56.695-5.133 9.12-12.014 14.29-6.881 5.169-17.541 8.026l-42.921 11.5v-3.177q2.031-1.537 2.82-3.337.79-1.8.79-4.878m16.808-16.418 21.093-5.652q10.096-2.705 15.172-8.93 10.886-13.342 10.886-43.525 0-21.843-5.866-31.888-3.271-5.577-7.896-7.068t-12.296.564l-21.093 5.653z"/>
    </g>
</svg>

<?xml version="1.0" encoding="UTF-8"?>
<!DOCTYPE svg PUBLIC "-//W3C//DTD SVG 1.1//EN" "http://www.w3.org/Graphics/SVG/1.1/DTD/svg11.dtd">
<svg version="1.1" xmlns="http://www.w3.org/2000/svg" xmlns:xlink="http://www.w3.org/1999/xlink" x="0" y="0" width="1242" height="252" viewBox="0, 0, 1242, 252">
  <g id="Shadow">
    <path d="M294.005,228.049 L199.019,244.316 C194.321,245.121 190.512,241.487 190.512,236.201 L190.512,69.484 C190.512,64.197 194.321,59.259 199.019,58.455 L294.005,42.188 C298.703,41.383 302.512,45.017 302.512,50.303 L302.512,217.02 C302.512,222.307 298.703,227.244 294.005,228.049 z" fill="#000000" fill-opacity="0.068"/>
    <path d="M41.533,226.277 L165.386,243.009 C171.511,243.836 176.477,240.222 176.477,234.935 L176.477,68.218 C176.477,62.932 171.511,57.975 165.386,57.148 L41.533,40.415 C35.408,39.588 30.442,43.203 30.442,48.489 L30.442,215.206 C30.442,220.493 35.408,225.449 41.533,226.277 z" fill="#000000" fill-opacity="0.068"/>
    <path d="M586.075,228.049 L491.088,244.316 C486.39,245.121 482.582,241.487 482.582,236.201 L482.582,69.484 C482.582,64.197 486.39,59.259 491.088,58.455 L586.075,42.188 C590.772,41.383 594.581,45.017 594.581,50.303 L594.581,217.02 C594.581,222.307 590.772,227.244 586.075,228.049 z" fill="#000000" fill-opacity="0.068"/>
    <path d="M333.603,226.277 L457.455,243.009 C463.58,243.836 468.546,240.222 468.546,234.935 L468.546,68.218 C468.546,62.932 463.58,57.975 457.455,57.148 L333.603,40.415 C327.477,39.588 322.511,43.203 322.511,48.489 L322.511,215.206 C322.511,220.493 327.477,225.449 333.603,226.277 z" fill="#000000" fill-opacity="0.068"/>
    <path d="M1064.144,228.049 L969.157,244.316 C964.459,245.121 960.651,241.487 960.651,236.201 L960.651,69.484 C960.651,64.197 964.459,59.259 969.157,58.455 L1064.144,42.188 C1068.842,41.383 1072.65,45.017 1072.65,50.303 L1072.65,217.02 C1072.65,222.307 1068.842,227.244 1064.144,228.049 z" fill="#000000" fill-opacity="0.068"/>
    <path d="M772.075,228.049 L677.088,244.316 C672.39,245.121 668.582,241.487 668.582,236.201 L668.582,69.484 C668.582,64.197 672.39,59.259 677.088,58.455 L772.075,42.188 C776.772,41.383 780.581,45.017 780.581,50.303 L780.581,217.02 C780.581,222.307 776.772,227.244 772.075,228.049 z" fill="#000000" fill-opacity="0.068"/>
    <path d="M811.672,226.277 L935.524,243.009 C941.65,243.836 946.615,240.222 946.615,234.935 L946.615,68.218 C946.615,62.932 941.65,57.975 935.524,57.148 L811.672,40.415 C805.547,39.588 800.581,43.203 800.581,48.489 L800.581,215.206 C800.581,220.493 805.547,225.449 811.672,226.277 z" fill="#000000" fill-opacity="0.068"/>
    <path d="M1103.741,226.277 L1227.594,243.009 C1233.719,243.836 1238.685,240.222 1238.685,234.935 L1238.685,68.218 C1238.685,62.932 1233.719,57.975 1227.594,57.148 L1103.741,40.415 C1097.616,39.588 1092.65,43.203 1092.65,48.489 L1092.65,215.206 C1092.65,220.493 1097.616,225.449 1103.741,226.277 z" fill="#000000" fill-opacity="0.068"/>
  </g>
  <g id="Cards">
    <path d="M292.939,36.485 L186.049,7.624 C180.762,6.197 176.477,9.325 176.477,14.612 L176.477,181.329 C176.477,186.615 180.762,192.058 186.049,193.486 L292.939,222.346 C298.226,223.773 302.512,220.645 302.512,215.358 L302.512,48.641 C302.512,43.355 298.226,37.912 292.939,36.485 z" fill="#E5E5E5"/>
    <path d="M585.009,36.485 L478.118,7.624 C472.832,6.197 468.546,9.325 468.546,14.612 L468.546,181.329 C468.546,186.615 472.832,192.058 478.118,193.486 L585.009,222.346 C590.295,223.773 594.581,220.645 594.581,215.358 L594.581,48.641 C594.581,43.355 590.295,37.912 585.009,36.485 z" fill="#E5E5E5"/>
    <path d="M771.009,37.577 L664.118,8.717 C658.832,7.289 654.546,10.418 654.546,15.704 L654.546,182.421 C654.546,187.708 658.832,193.15 664.118,194.578 L771.009,223.438 C776.295,224.866 780.581,221.737 780.581,216.45 L780.581,49.734 C780.581,44.447 776.295,39.004 771.009,37.577 z" fill="#E5E5E5"/>
    <path d="M1063.078,37.577 L956.188,8.717 C950.901,7.289 946.615,10.418 946.615,15.704 L946.615,182.421 C946.615,187.708 950.901,193.15 956.188,194.578 L1063.078,223.438 C1068.365,224.866 1072.65,221.737 1072.65,216.45 L1072.65,49.734 C1072.65,44.447 1068.365,39.004 1063.078,37.577 z" fill="#E5E5E5"/>
    <path d="M40.014,36.485 L146.905,7.624 C152.191,6.197 156.477,9.325 156.477,14.612 L156.477,181.329 C156.477,186.615 152.191,192.058 146.905,193.486 L40.014,222.346 C34.728,223.773 30.442,220.645 30.442,215.358 L30.442,48.641 C30.442,43.355 34.728,37.912 40.014,36.485 z" fill="#FFFFFF"/>
    <path d="M332.084,36.485 L438.974,7.624 C444.261,6.197 448.546,9.325 448.546,14.612 L448.546,181.329 C448.546,186.615 444.261,192.058 438.974,193.486 L332.084,222.346 C326.797,223.773 322.511,220.645 322.511,215.358 L322.511,48.641 C322.511,43.355 326.797,37.912 332.084,36.485 z" fill="#FFFFFF"/>
    <path d="M1102.222,37.577 L1209.113,8.717 C1214.399,7.289 1218.685,10.418 1218.685,15.704 L1218.685,182.421 C1218.685,187.708 1214.399,193.15 1209.113,194.578 L1102.222,223.438 C1096.936,224.866 1092.65,221.737 1092.65,216.45 L1092.65,49.734 C1092.65,44.447 1096.936,39.004 1102.222,37.577 z" fill="#FFFFFF"/>
    <path d="M810.153,37.577 L917.043,8.717 C922.33,7.289 926.615,10.418 926.615,15.704 L926.615,182.421 C926.615,187.708 922.33,193.15 917.043,194.578 L810.153,223.438 C804.866,224.866 800.581,221.737 800.581,216.45 L800.581,49.734 C800.581,44.447 804.866,39.004 810.153,37.577 z" fill="#FFFFFF"/>
  </g>
  <g id="Black_Letters">
    <path d="M491.816,166.137 L491.816,52.375 Q491.816,49.322 491.026,47.534 Q490.237,45.747 488.206,44.218 L488.206,41.066 L531.128,52.566 Q545.228,56.344 552.785,63.984 Q563.614,75.061 568.803,95.264 Q572.921,111.141 572.921,130.939 Q572.921,165.708 560.682,180.65 Q555.549,186.957 548.668,188.413 Q541.787,189.869 531.128,187.013 L488.206,175.512 L488.206,172.36 Q490.237,171.919 491.026,170.555 Q491.816,169.19 491.816,166.137 z M508.624,158.821 L529.717,164.473 Q539.813,167.178 544.889,163.712 Q555.775,156.287 555.775,126.344 Q555.775,104.675 549.909,91.58 Q546.638,84.301 542.013,80.353 Q537.388,76.405 529.717,74.35 L508.624,68.698 z" fill="#000000"/>
    <path d="M699.151,153.926 L746.471,166.605 Q748.22,167.074 749.122,165.926 Q750.024,164.777 750.588,161.354 L752.393,161.838 L752.393,196.886 L750.588,196.402 Q750.024,192.677 749.122,191.045 Q748.22,189.413 746.471,188.945 L678.734,170.794 L678.734,167.617 Q680.764,167.169 681.554,165.792 Q682.343,164.415 682.343,161.337 L682.343,46.661 Q682.343,43.583 681.554,41.783 Q680.764,39.983 678.734,38.446 L678.734,35.269 L702.76,41.707 L702.76,44.884 Q700.73,45.234 699.94,46.66 Q699.151,48.087 699.151,51.165 z" fill="#000000"/>
    <path d="M982.239,84.471 L982.239,166.879 Q982.239,169.957 983.029,171.757 Q983.819,173.557 985.849,175.094 L985.849,178.271 L963.232,172.211 L963.232,169.034 Q965.263,168.585 966.052,167.208 Q966.842,165.831 966.842,162.753 L966.842,47.979 Q966.842,45 966.052,43.2 Q965.263,41.4 963.232,39.863 L963.232,36.686 L989.402,43.698 L989.402,46.875 Q986.977,47.317 986.977,50.792 Q986.977,53.175 988.556,56.478 L1031.026,145.598 L1031.026,65.177 Q1031.026,62.198 1030.237,60.398 Q1029.447,58.598 1027.417,57.061 L1027.417,53.884 L1050.033,59.944 L1050.033,63.121 Q1048.003,63.57 1047.213,64.947 Q1046.424,66.324 1046.424,69.302 L1046.424,184.077 Q1046.424,187.155 1047.213,188.955 Q1048.003,190.755 1050.033,192.292 L1050.033,195.469 L1025.781,188.971 L1025.781,185.794 Q1028.15,185.535 1028.15,182.159 Q1028.15,180.173 1025.386,174.469 z" fill="#000000"/>
    <path d="M253.456,147.849 L218.487,138.479 L213.298,156 Q212.227,159.652 212.227,161.918 Q212.227,166.252 216.005,168.939 L216.005,172.09 L190.512,165.26 L190.512,162.108 Q192.768,161.924 193.953,160.272 Q195.137,158.619 196.66,153.314 L224.973,57.579 Q226.327,53.017 226.327,50.062 Q226.327,45.531 223.056,42.685 L223.056,39.533 L250.354,46.848 L250.354,49.999 Q247.026,50.782 247.026,54.919 Q247.026,57.775 248.098,61.707 L277.426,173.183 Q279.287,180.281 280.697,183.072 Q282.107,185.863 284.476,187.285 L284.476,190.437 L256.163,182.851 L256.163,179.699 Q259.885,179.613 259.885,174.589 Q259.885,172.521 258.757,168.18 z M248.605,128.13 L236.141,76.922 L223.507,121.405 z" fill="#000000"/>
  </g>
  <g id="Red_Letters">
    <path d="M85.195,121.854 L73.632,141.401 L73.632,177.45 Q73.632,180.504 74.45,181.91 Q75.268,183.316 77.242,183.673 L77.242,186.825 L53.215,193.263 L53.215,190.111 Q55.246,188.582 56.035,186.795 Q56.825,185.007 56.825,181.954 L56.825,68.093 Q56.825,65.138 56.035,63.774 Q55.246,62.41 53.215,61.969 L53.215,58.817 L77.242,52.379 L77.242,55.531 Q75.212,56.961 74.422,58.798 Q73.632,60.635 73.632,63.59 L73.632,110.67 L105.33,56.968 Q107.529,53.226 107.529,51.355 Q107.529,48.499 104.258,48.292 L104.258,45.14 L135.73,36.707 L135.73,39.859 Q133.756,41.077 132.91,42.191 Q132.064,43.304 128.003,50.203 L123.66,57.67 L97.49,101.421 L127.157,155.82 Q131.274,163.384 133.107,165.405 Q134.94,167.425 137.704,167.473 L137.704,170.624 L107.642,178.679 L107.642,175.528 Q110.631,173.643 110.631,170.984 Q110.631,169.605 107.924,164.421 z" fill="#A60707"/>
    <path d="M368.112,129.34 L368.112,173.958 Q368.112,176.913 368.929,178.319 Q369.747,179.725 371.721,180.083 L371.721,183.235 L347.695,189.673 L347.695,186.521 Q349.725,184.992 350.515,183.204 Q351.304,181.417 351.304,178.462 L351.304,64.601 Q351.304,61.548 350.515,60.184 Q349.725,58.819 347.695,58.378 L347.695,55.226 L395.861,42.32 Q404.659,39.963 409.82,40.353 Q414.981,40.743 418.816,44.148 Q423.272,48.075 425.471,56.252 Q427.558,64.164 427.558,73.816 Q427.558,106.714 406.633,117.935 L421.58,151.063 Q425.528,159.756 427.361,162.072 Q429.194,164.388 431.845,163.973 L431.845,167.125 L403.983,174.59 L403.983,171.439 Q406.859,169.88 406.859,167.122 Q406.859,165.349 404.208,159.263 L388.642,123.839 z M368.112,107.179 L394.056,100.227 Q399.809,98.685 402.178,97.46 Q404.547,96.234 406.521,93.834 Q410.807,88.647 410.807,78.108 Q410.807,67.569 406.521,64.679 Q404.49,63.253 402.206,63.323 Q399.922,63.394 394.056,64.965 L368.112,71.917 z" fill="#A60707"/>
    <path d="M881.861,140.44 L846.893,149.81 L841.704,170.263 Q840.632,174.522 840.632,176.805 Q840.632,181.174 844.411,181.849 L844.411,185.026 L818.918,191.857 L818.918,188.68 Q821.174,187.281 822.358,184.978 Q823.543,182.675 825.065,176.509 L853.379,64.771 Q854.732,59.444 854.732,56.465 Q854.732,51.898 851.461,50.789 L851.461,47.612 L878.759,40.297 L878.759,43.475 Q875.431,46.054 875.431,50.224 Q875.431,53.103 876.503,56.49 L905.831,153.08 Q907.693,159.234 909.103,161.288 Q910.513,163.343 912.882,163.503 L912.882,166.68 L884.568,174.266 L884.568,171.089 Q888.291,169 888.291,163.936 Q888.291,161.851 887.163,158.083 z M877.011,123.173 L864.546,78.26 L851.912,129.898 z" fill="#A60707"/>
    <path d="M1119.92,179.161 L1119.92,64.486 Q1119.92,61.408 1119.13,60.031 Q1118.341,58.654 1116.31,58.205 L1116.31,55.028 L1159.231,43.527 Q1173.332,39.749 1180.889,43.383 Q1191.718,48.722 1196.907,66.296 Q1201.025,80.085 1201.025,100.042 Q1201.025,135.09 1188.786,156.737 Q1183.653,165.857 1176.772,171.027 Q1169.891,176.196 1159.231,179.053 L1116.31,190.553 L1116.31,187.376 Q1118.341,185.839 1119.13,184.039 Q1119.92,182.239 1119.92,179.161 z M1136.728,162.743 L1157.821,157.091 Q1167.917,154.386 1172.993,148.161 Q1183.879,134.819 1183.879,104.636 Q1183.879,82.793 1178.013,72.748 Q1174.742,67.171 1170.117,65.68 Q1165.492,64.189 1157.821,66.244 L1136.728,71.897 z" fill="#A60707"/>
  </g>
</svg>
